X: 2031
M: C
L: 1/8
K: A
ue |\
vA/A/A uc>uA vd>vBue>uc | (3def (3edc d<BB>uc |\
vA/A/A uc>uA vd>vBue>uc |
(3def (3edc d<BB>uc |\
ue |\
va>vbua>ub e<cc>uA | (3def (3edc d<BB>e |
a>ba>b e<cc>uA | d/c/B/A/ G>uB A/A/A uA>ue |\
a<ba>b e<cc>A | (3def (3edc d<BB>uc |\
(3AEA (3cAc (3dBd (3ece | (3fdf (3geg a<A A |]


